X: 11664
T: Eileen O'Keefe's
R: polka
M: 2/4
K: Gmajor
|:dB A^G/A/|BG EG|DE G>A|BA A2|
[1 dB A^G/A/|B/c/B/G/ EG/E/|DE/F/ G>A|BG G2:|
[2 c2 B/c/d/B/|A^G/A/ A=G/E/|DD/E/ G>A|G/A/B dc||
Bd g2|dB/d/ e2|Bd e/f/g/e|dB A^G/A/|
[1 B/c/d g2|dB/d/ eg/e/|dB A^G/A/|BG G>c:|
[2 g/a/g/f/ g>e|dB/d/ eg/e/|dB A^G/A/|BG G2||

